src/public/img/jsDelivr.logo.svg

<svg width="115" height="28" viewBox="0 0 115 28" fill="none" xmlns="http://www.w3.org/2000/svg">
<g clip-path="url(#clip0)">
<path d="M35.8277 16.1211C35.8277 19.4193 34.6867 21.0689 32.404 21.0689C32.0538 21.0691 31.7052 21.0209 31.3682 20.9256V20.0098C31.7419 20.1366 32.0935 20.2009 32.4237 20.2009C33.2985 20.2009 33.9294 19.8682 34.3163 19.2052C34.7032 18.5406 34.8962 17.5063 34.8962 16.1013V7.15863H35.8277V16.1211ZM38.6608 20.345V19.267C39.6367 19.8896 40.6265 20.2017 41.6278 20.2017C42.6924 20.2017 43.5007 19.981 44.0527 19.5387C44.6038 19.0965 44.8798 18.478 44.8798 17.685C44.8798 16.985 44.6942 16.4266 44.3229 16.0116C43.9525 15.5949 43.1491 15.0283 41.912 14.3093C40.5304 13.5031 39.6556 12.8278 39.2876 12.2835C38.9204 11.7399 38.7364 11.1124 38.7364 10.4009C38.7364 9.43569 39.1101 8.61463 39.8584 7.94016C40.6068 7.26733 41.6048 6.92969 42.8542 6.92969C43.6824 6.9325 44.5045 7.07103 45.2881 7.33981V8.33133C44.4846 7.96801 43.6124 7.78262 42.731 7.78781C41.8052 7.78781 41.0717 8.02416 40.5287 8.49439C39.9874 8.96463 39.7155 9.56251 39.7155 10.2872C39.7155 10.9856 39.9012 11.5423 40.2716 11.9557C40.6429 12.3675 41.443 12.9307 42.6727 13.6423C43.9467 14.3678 44.7952 15.0118 45.2166 15.5735C45.6388 16.1367 45.8491 16.7832 45.8491 17.5137C45.8491 18.5629 45.4861 19.4169 44.7607 20.0782C44.0346 20.7395 43.0086 21.0697 41.6837 21.0697C41.2138 21.0697 40.6741 20.9956 40.063 20.8506C39.451 20.704 38.9844 20.5352 38.6608 20.345ZM48.55 20.8309V7.15863H53.3808C58.2231 7.15863 60.6455 9.38051 60.6455 13.8235C60.6455 15.9523 59.9843 17.6529 58.6634 18.9244C57.3409 20.1951 55.5806 20.8309 53.3808 20.8309H48.55ZM51.6221 9.6671V18.3323H53.1434C54.475 18.3323 55.519 17.9329 56.2763 17.1316C57.0337 16.3303 57.4124 15.2407 57.4124 13.8622C57.4124 12.5585 57.037 11.534 56.2854 10.7871C55.5346 10.0402 54.4791 9.6671 53.1229 9.6671H51.6221ZM71.334 20.8309H63.155V7.15863H71.0193V9.6671H66.2271V12.7084H70.6875V15.2053H66.2271V18.3315H71.334V20.8309ZM82.0552 20.8309H73.9338V7.15863H77.0059V18.3323H82.0552V20.8309ZM87.0627 7.15863V20.8309H83.9905V7.15863H87.0627ZM101.721 7.15863L97.0233 20.8309H93.5437L88.9018 7.15863H92.2114L95.0552 16.6729C95.208 17.1876 95.2991 17.643 95.3312 18.0375H95.387C95.4421 17.5621 95.5411 17.0928 95.6827 16.6358L98.5076 7.15863H101.721ZM115 20.8309H111.472L109.352 17.3119C109.208 17.0689 109.056 16.8305 108.896 16.5971C108.764 16.4051 108.616 16.2249 108.453 16.0585C108.318 15.9192 108.161 15.8034 107.988 15.7159C107.823 15.6359 107.642 15.595 107.46 15.5965H106.633V20.8309H103.561V7.15863H108.429C111.738 7.15863 113.393 8.39886 113.393 10.8769C113.398 11.3266 113.324 11.7737 113.174 12.1978C113.028 12.6013 112.823 12.9653 112.557 13.289C112.282 13.62 111.956 13.9038 111.591 14.129C111.198 14.3706 110.774 14.5563 110.33 14.6807V14.7195C110.534 14.782 110.73 14.8866 110.921 15.0283C111.111 15.1716 111.295 15.3387 111.471 15.5306C111.65 15.7209 111.82 15.9251 111.98 16.145C112.142 16.364 112.29 16.5782 112.423 16.789L115 20.8309ZM106.634 9.46616V13.27H107.965C108.624 13.27 109.154 13.0798 109.552 12.6985C109.749 12.5152 109.905 12.292 110.01 12.0438C110.115 11.7955 110.167 11.5278 110.161 11.2582C110.161 10.064 109.447 9.46534 108.021 9.46534H106.634V9.46616Z" fill="#1E3B45"/>
<path d="M12.6383 0.27832L10.0869 9.36844V18.545L12.6383 27.7216L15.2619 18.545V9.36844L12.6383 0.27832Z" fill="#BD483B"/>
<path d="M12.6385 0.27832L0 4.84232L1.79564 21.7181L12.6385 27.7216" fill="#E64E3D"/>
<path d="M12.6387 27.7216L23.5374 21.6563L25.577 4.7822L12.6387 0.27832" fill="#BD483B"/>
<path d="M10.3449 20.6607C9.1159 20.2757 8.00304 19.5873 7.10851 18.6587L7.10604 18.6571C6.25136 17.7727 5.62091 16.6955 5.26769 15.5161C5.47386 15.708 5.69319 15.8842 5.92154 16.0489C5.92401 16.0555 5.92811 16.0621 5.93058 16.0712C5.92811 16.0613 5.92401 16.0547 5.92154 16.0489C6.35607 16.3538 6.82338 16.6088 7.31469 16.8091C7.46008 16.8667 7.6104 16.9202 7.7599 16.9697C7.76894 16.9746 7.77961 16.9746 7.78865 16.9779C7.81494 16.9878 7.84204 16.9968 7.86833 17.0051C7.89877 17.3078 8.02664 17.5924 8.23262 17.8158C8.43859 18.0392 8.7115 18.1894 9.01011 18.2437C9.24586 19.1965 9.69436 20.0109 10.3449 20.6607ZM10.8214 9.71271C10.8214 9.97954 10.8937 10.2291 11.021 10.4399C9.99419 11.8835 9.2894 13.4507 8.98465 15.0014C8.95097 15.1735 8.9214 15.344 8.8984 15.5112C8.54601 15.6042 8.24947 15.8348 8.06383 16.1387C8.05369 16.1385 8.04379 16.1357 8.03508 16.1305C8.01619 16.1255 8.00222 16.1189 7.98497 16.1132C7.12067 15.827 6.33445 15.3435 5.68826 14.7008C5.60009 14.6126 5.51489 14.5214 5.43279 14.4274L5.39911 14.3871L5.30465 14.2742L5.26604 14.2257C5.25454 14.2108 5.24633 14.2001 5.23565 14.1886C5.23154 14.1804 5.22497 14.1754 5.22169 14.1697C5.20526 14.1515 5.19129 14.1309 5.17815 14.1137C5.17158 14.1038 5.16419 14.0955 5.15926 14.0898L5.15597 14.0832C5.14529 14.0717 5.13626 14.056 5.12558 14.0428C5.08045 13.9826 5.03744 13.9208 4.99661 13.8575C4.98922 13.8477 4.98101 13.8378 4.97608 13.8254C4.96977 13.8187 4.96426 13.8112 4.95965 13.8032C4.825 11.794 5.48182 9.81201 6.78897 8.28306C7.72394 7.18552 8.94747 6.37317 10.3203 5.93848C10.3417 6.08836 10.3688 6.24071 10.3983 6.39389C10.556 7.19024 10.8197 7.99318 11.1779 8.78048C10.9553 9.02753 10.8214 9.3553 10.8214 9.71271ZM10.0016 16.8651C10.0024 16.9712 9.98015 17.0763 9.93647 17.1729C9.89279 17.2696 9.82868 17.3557 9.74858 17.4251C9.62966 17.5302 9.48015 17.5942 9.32216 17.6075C9.16417 17.6209 9.00608 17.5829 8.87129 17.4992C8.75033 17.425 8.6529 17.3179 8.59036 17.1904C8.54169 17.0889 8.51669 16.9777 8.51726 16.8651C8.51705 16.7471 8.54505 16.6308 8.59894 16.5259C8.65282 16.421 8.73101 16.3306 8.82694 16.2622C8.90842 16.203 9.00114 16.1611 9.09938 16.1391C9.19762 16.1171 9.29932 16.1155 9.3982 16.1344C9.49708 16.1533 9.59105 16.1923 9.67434 16.249C9.75762 16.3057 9.82845 16.3788 9.88247 16.464C9.96156 16.5826 10.0031 16.7224 10.0016 16.8651ZM12.9595 9.71271C12.9599 9.81047 12.9409 9.90733 12.9039 9.99774C12.8668 10.0881 12.8122 10.1703 12.7434 10.2396C12.6746 10.3088 12.5928 10.3637 12.5027 10.4012C12.4127 10.4387 12.3161 10.458 12.2186 10.458C12.1825 10.458 12.1471 10.4564 12.1135 10.4531C12.1069 10.4498 12.1003 10.4498 12.0929 10.4481C11.9064 10.4204 11.7375 10.3224 11.6205 10.1742C11.5036 10.0259 11.4474 9.83855 11.4634 9.65022C11.4794 9.46189 11.5665 9.28676 11.7068 9.16051C11.8471 9.03426 12.0301 8.96639 12.2186 8.97071H12.2498C12.4404 8.97978 12.6202 9.06178 12.7523 9.19983C12.8843 9.33788 12.9585 9.52145 12.9595 9.71271Z" fill="#FEC82F"/>
<path d="M20.332 13.2941C20.332 14.0411 20.2261 14.7617 20.0297 15.4435C19.349 15.2598 18.6885 15.0076 18.0583 14.6908C18.1125 14.4216 18.0862 14.1423 17.9827 13.8879C18.7898 13.0804 19.4807 12.1641 20.0355 11.1653C20.2277 11.8414 20.332 12.5571 20.332 13.2941ZM19.6166 10.0437C19.5639 10.159 19.5088 10.2732 19.4514 10.3863C18.9197 11.4287 18.2307 12.3826 17.4086 13.2143C17.1726 13.0718 16.8999 13.0024 16.6248 13.0147C16.3496 13.0271 16.0842 13.1205 15.8618 13.2834C15.4325 12.9439 15.0238 12.5789 14.6379 12.1906C14.148 11.7015 13.6957 11.176 13.285 10.6185C13.4733 10.397 13.5879 10.122 13.6126 9.83196C13.6373 9.54195 13.571 9.25145 13.423 9.00108C14.3739 8.07745 15.4587 7.30336 16.6405 6.70508C17.9385 7.50027 18.9737 8.66158 19.6166 10.0437ZM17.4283 14.4141C17.4371 14.6111 17.3675 14.8036 17.2348 14.9492C17.1021 15.0947 16.9171 15.1815 16.7206 15.1903C16.5241 15.1992 16.3321 15.1294 16.1869 14.9963C16.0418 14.8633 15.9552 14.6779 15.9464 14.4808C15.9554 14.4726 15.9637 14.4677 15.9694 14.4627C15.9612 14.4561 15.9522 14.4512 15.9448 14.4438L15.9439 14.4133C15.9446 14.2974 15.9722 14.1833 16.0245 14.08C16.0768 13.9767 16.1523 13.8869 16.2452 13.8179C16.338 13.7489 16.4456 13.7025 16.5594 13.6823C16.6732 13.6622 16.7901 13.6688 16.9009 13.7018C17.0531 13.7487 17.1863 13.8431 17.2812 13.9712C17.376 14.0994 17.4276 14.2545 17.4283 14.4141ZM17.6213 15.4551C17.3902 15.6647 17.0959 15.7908 16.7851 15.8133C16.4743 15.8359 16.1649 15.7535 15.9062 15.5794C15.8741 15.6 15.8421 15.6214 15.8117 15.6387C14.832 16.2663 13.7614 16.738 12.6377 17.0371V21.0098C14.1538 21.0095 15.6361 20.5604 16.8986 19.7189C18.1612 18.8774 19.1478 17.6809 19.7348 16.2794C19.005 16.0749 18.2971 15.7988 17.6213 15.4551Z" fill="#DF9C26"/>
<path d="M12.6382 17.0371C11.9973 17.2052 11.3408 17.3065 10.6791 17.3393L10.5739 17.3459C10.4499 17.6836 10.201 17.9586 9.88477 18.1201C10.086 18.8686 10.4499 19.5184 10.9682 20.0364C11.3987 20.4679 11.9227 20.7941 12.5216 21.0082L12.6382 21.0098V17.0371Z" fill="#FEC82F"/>
<path d="M15.2886 14.414C15.2886 14.2723 15.31 14.134 15.3494 14.0039C14.3275 13.201 13.416 12.2661 12.6387 11.2236V16.1203C13.6023 15.8376 14.5209 15.4186 15.3666 14.876C15.3149 14.7275 15.2885 14.5713 15.2886 14.414Z" fill="#DF9C26"/>
<path d="M12.6388 11.2238C12.6019 11.1752 12.5641 11.1308 12.5304 11.0805C12.2522 11.1436 11.9615 11.1207 11.6967 11.0146C10.7652 12.3372 10.1261 13.7661 9.84845 15.1727C9.82217 15.3061 9.79999 15.4362 9.78027 15.5638C10.1721 15.7244 10.4768 16.0547 10.5984 16.4631C10.6116 16.4598 10.6222 16.4598 10.6362 16.4598C11.3007 16.4277 11.9727 16.3116 12.6388 16.1205V11.2238Z" fill="#FEC82F"/>
<path d="M12.6387 5.58204V8.3771C12.6781 8.39028 12.7192 8.40428 12.7578 8.4224C13.6364 7.56193 14.623 6.81974 15.6927 6.21452C14.7289 5.7954 13.6892 5.58009 12.6387 5.58204Z" fill="#DF9C26"/>
<path d="M12.638 5.58203C12.1386 5.58203 11.6515 5.62733 11.1816 5.72038C11.2022 5.88262 11.2309 6.05309 11.2646 6.21944C11.4026 6.92768 11.6334 7.64003 11.9456 8.34003C12.1758 8.2936 12.414 8.30635 12.638 8.37709V5.58203Z" fill="#FEC82F"/>
</g>
<defs>
<clipPath id="clip0">
<rect width="115" height="28" fill="white"/>
</clipPath>
</defs>
</svg>

<svg xmlns="http://www.w3.org/2000/svg" width="115" height="28" fill="none">
  <g clip-path="url(#a)">
    <path fill="#1E3B45" d="M35.828 16.121c0 3.298-1.141 4.948-3.424 4.948a3.82 3.82 0 0 1-1.036-.143v-.916c.374.127.726.19 1.056.19.874 0 1.505-.332 1.892-.995.387-.664.58-1.699.58-3.104V7.16h.932v8.962Zm2.833 4.224v-1.078c.976.623 1.965.935 2.967.935 1.064 0 1.873-.221 2.425-.663.55-.443.827-1.061.827-1.854 0-.7-.186-1.258-.557-1.673-.37-.417-1.174-.984-2.411-1.703-1.382-.806-2.256-1.481-2.624-2.025-.368-.544-.552-1.172-.552-1.883 0-.965.374-1.786 1.122-2.46.749-.674 1.747-1.011 2.996-1.011a7.58 7.58 0 0 1 2.434.41v.991a6.119 6.119 0 0 0-2.557-.543c-.926 0-1.66.236-2.202.706a2.272 2.272 0 0 0-.814 1.793c0 .699.186 1.255.557 1.669.37.412 1.171.975 2.4 1.686 1.275.726 2.123 1.37 2.545 1.931a3.15 3.15 0 0 1 .632 1.94c0 1.05-.363 1.904-1.088 2.565-.726.662-1.752.992-3.077.992-.47 0-1.01-.074-1.621-.22-.612-.146-1.079-.315-1.402-.505Zm9.889.486V7.159h4.83c4.843 0 7.265 2.222 7.265 6.664 0 2.13-.66 3.83-1.982 5.101s-3.082 1.907-5.282 1.907H48.55Zm3.072-11.164v8.665h1.521c1.332 0 2.376-.4 3.133-1.2.758-.802 1.136-1.891 1.136-3.27 0-1.303-.375-2.328-1.127-3.075-.75-.747-1.806-1.12-3.162-1.12h-1.5Zm19.712 11.164h-8.179V7.159h7.864v2.508h-4.792v3.041h4.46v2.497h-4.46v3.126h5.107v2.5Zm10.721 0h-8.121V7.159h3.072v11.173h5.05v2.499Zm5.008-13.672V20.83H83.99V7.159h3.073Zm14.658 0L97.023 20.83h-3.48l-4.64-13.671h3.31l2.843 9.514c.153.515.244.97.276 1.365h.056c.055-.476.154-.945.296-1.402l2.825-9.477h3.213ZM115 20.83h-3.528l-2.12-3.52a12.85 12.85 0 0 0-.456-.714 4.04 4.04 0 0 0-.443-.539 1.743 1.743 0 0 0-.465-.342 1.189 1.189 0 0 0-.528-.12h-.827v5.235h-3.072V7.159h4.868c3.309 0 4.964 1.24 4.964 3.718.005.45-.069.897-.219 1.32a3.671 3.671 0 0 1-.617 1.092 3.959 3.959 0 0 1-.966.84 4.965 4.965 0 0 1-1.261.552v.039c.204.062.4.167.591.308.19.144.374.31.55.503.179.19.349.394.509.614.162.219.31.433.443.644L115 20.831Zm-8.366-11.365v3.804h1.331c.659 0 1.189-.19 1.587-.572a1.911 1.911 0 0 0 .609-1.44c0-1.194-.714-1.793-2.14-1.793h-1.387v.001Z"/>
    <path fill="#BD483B" d="m12.638.278-2.551 9.09v9.177l2.551 9.177 2.624-9.177V9.368L12.638.278Z"/>
    <path fill="#E64E3D" d="M12.639.278 0 4.842l1.796 16.876 10.842 6.004"/>
    <path fill="#BD483B" d="m12.639 27.722 10.898-6.066 2.04-16.874L12.639.278"/>
    <path fill="#FEC82F" d="M10.345 20.66a7.683 7.683 0 0 1-3.236-2.001l-.003-.002a7.698 7.698 0 0 1-1.838-3.14c.206.191.425.367.654.532l.009.022c-.003-.01-.007-.016-.01-.022.435.305.902.56 1.394.76.145.058.295.111.445.16.009.006.02.006.029.009.026.01.053.019.08.027a1.403 1.403 0 0 0 1.141 1.239c.236.953.684 1.767 1.335 2.417Zm.476-10.947c0 .267.073.516.2.727-1.027 1.444-1.732 3.01-2.036 4.56a9.175 9.175 0 0 0-.087.51 1.402 1.402 0 0 0-.834.628.058.058 0 0 1-.029-.008l-.05-.018a5.877 5.877 0 0 1-2.552-1.686l-.034-.04-.094-.113-.039-.048-.03-.037c-.004-.009-.011-.014-.014-.02-.017-.018-.03-.038-.044-.055a.133.133 0 0 0-.019-.024l-.003-.007c-.01-.011-.02-.027-.03-.04a3.206 3.206 0 0 1-.13-.185c-.007-.01-.015-.02-.02-.033a.12.12 0 0 1-.016-.022 7.703 7.703 0 0 1 1.829-5.52 7.688 7.688 0 0 1 3.531-2.345c.022.15.049.303.078.456.158.796.422 1.6.78 2.386a1.388 1.388 0 0 0-.357.933Zm-.82 7.152a.734.734 0 0 1-.252.56.737.737 0 0 1-.878.074.75.75 0 0 1-.28-.309.744.744 0 0 1 .236-.928.738.738 0 0 1 1.055.202.71.71 0 0 1 .12.401Zm2.959-7.152a.745.745 0 0 1-.847.74c-.006-.003-.013-.003-.02-.005a.74.74 0 0 1-.63-.798.744.744 0 0 1 .756-.68h.03a.744.744 0 0 1 .71.743Z"/>
    <path fill="#DF9C26" d="M20.332 13.294c0 .747-.106 1.468-.302 2.15a10.453 10.453 0 0 1-1.972-.753c.055-.27.028-.549-.075-.803a12.3 12.3 0 0 0 2.052-2.723c.193.676.297 1.392.297 2.13Zm-.715-3.25a11.375 11.375 0 0 1-2.208 3.17 1.396 1.396 0 0 0-1.547.07c-.43-.34-.838-.705-1.224-1.093-.49-.49-.942-1.015-1.353-1.573a1.398 1.398 0 0 0 .138-1.617 13.129 13.129 0 0 1 3.217-2.296 7.746 7.746 0 0 1 2.977 3.339Zm-2.189 4.37a.745.745 0 0 1-.707.776.74.74 0 0 1-.775-.71c.01-.007.018-.012.023-.017-.008-.007-.017-.012-.024-.02l-.001-.03a.748.748 0 0 1 .957-.711.747.747 0 0 1 .527.712Zm.193 1.041a1.395 1.395 0 0 1-1.715.124l-.094.06a11.26 11.26 0 0 1-3.174 1.398v3.973c1.516 0 2.998-.45 4.26-1.291a7.714 7.714 0 0 0 2.837-3.44c-.73-.204-1.438-.48-2.114-.824Z"/>
    <path fill="#FEC82F" d="M12.638 17.037c-.64.168-1.297.27-1.959.302l-.105.007a1.422 1.422 0 0 1-.69.774 4.22 4.22 0 0 0 1.084 1.916c.43.432.955.758 1.554.972l.116.002v-3.973Z"/>
    <path fill="#DF9C26" d="M15.289 14.414c0-.142.021-.28.06-.41a14.743 14.743 0 0 1-2.71-2.78v4.896a10.553 10.553 0 0 0 2.728-1.244 1.403 1.403 0 0 1-.078-.462Z"/>
    <path fill="#FEC82F" d="M12.639 11.224c-.037-.049-.075-.093-.109-.143-.278.063-.569.04-.833-.066-.932 1.322-1.57 2.751-1.849 4.158a9.61 9.61 0 0 0-.068.39c.392.161.697.492.818.9.014-.003.024-.003.038-.003a8.816 8.816 0 0 0 2.003-.34v-4.896Z"/>
    <path fill="#DF9C26" d="M12.639 5.582v2.795c.04.013.08.027.119.045a14.16 14.16 0 0 1 2.935-2.207 7.623 7.623 0 0 0-3.054-.633Z"/>
    <path fill="#FEC82F" d="M12.638 5.582c-.5 0-.986.045-1.456.138.02.163.049.333.083.5a9.85 9.85 0 0 0 .68 2.12c.23-.046.469-.034.693.037V5.582Z"/>
  </g>
  <defs>
    <clipPath id="a">
      <path fill="#fff" d="M0 0h115v28H0z"/>
    </clipPath>
  </defs>
</svg>
